public/img/logo-realms.svg

<svg xmlns="http://www.w3.org/2000/svg" width="1024" height="1024" fill="none"><path fill="#00C2FF" d="M693.308 900.396c-4.653 1.79-8.396-3.901-5.099-7.641 89.495-101.509 143.79-234.794 143.79-380.76 0-145.966-54.295-279.251-143.79-380.761-3.297-3.74.446-9.431 5.099-7.641 155.99 60.004 266.691 211.275 266.691 388.402 0 177.127-110.701 328.397-266.691 388.401Z"/><path fill="url(#a)" d="M727.645 267.473c2.078 4.725-4.517 9.474-8.689 6.435C699.514 259.745 665.048 240 624 240c-80 0-192 96-192 272s80 272 176 272c51.707 0 90.046-20.052 110.697-34.236 4.255-2.922 11.026 2.038 8.948 6.763C675.921 874.128 570.102 960 448 960 253.596 960 64 759.424 64 512S253.596 64 448 64c122.102 0 227.921 85.872 279.645 203.473Z"/><defs><radialGradient id="a" cx="0" cy="0" r="1" gradientTransform="matrix(-483.414 0 0 -644.552 608 512)" gradientUnits="userSpaceOnUse"><stop offset=".156" stop-color="#006585"/><stop offset="1" stop-color="#00C2FF"/></radialGradient></defs></svg>

<svg width="1024" height="1024" viewBox="0 0 1024 1024" fill="none" xmlns="http://www.w3.org/2000/svg">
<path d="M693.308 900.396C688.655 902.186 684.912 896.495 688.209 892.755C777.704 791.246 831.999 657.961 831.999 511.995C831.999 366.029 777.704 232.744 688.209 131.234C684.912 127.494 688.655 121.803 693.308 123.593C849.298 183.597 959.999 334.868 959.999 511.995C959.999 689.122 849.298 840.392 693.308 900.396Z" fill="#00C2FF"/>
<path d="M727.645 267.473C729.723 272.198 723.128 276.947 718.956 273.908C699.514 259.745 665.048 240 624 240C544 240 432 336 432 512C432 688 512 784 608 784C659.707 784 698.046 763.948 718.697 749.764C722.952 746.842 729.723 751.802 727.645 756.527C675.921 874.128 570.102 960 448 960C253.596 960 64 759.424 64 512C64 264.576 253.596 64 448 64C570.102 64 675.921 149.872 727.645 267.473Z" fill="url(#paint0_radial_5534_7443)"/>
<defs>
<radialGradient id="paint0_radial_5534_7443" cx="0" cy="0" r="1" gradientUnits="userSpaceOnUse" gradientTransform="translate(608 512) rotate(180) scale(483.414 644.552)">
<stop offset="0.156146" stop-color="#006585"/>
<stop offset="1" stop-color="#00C2FF"/>
</radialGradient>
</defs>
</svg>
